static/img/platform/security/remote-exec.svg

<?xml version="1.0" encoding="UTF-8" standalone="no"?>
<!DOCTYPE svg PUBLIC "-//W3C//DTD SVG 1.1//EN" "http://www.w3.org/Graphics/SVG/1.1/DTD/svg11.dtd">
<svg width="100%" height="100%" viewBox="0 0 32 32" version="1.1" xmlns="http://www.w3.org/2000/svg" xmlns:xlink="http://www.w3.org/1999/xlink" xml:space="preserve" xmlns:serif="http://www.serif.com/" style="fill-rule:evenodd;clip-rule:evenodd;stroke-linejoin:round;stroke-miterlimit:2;">
    <path d="M32,16C32,7.169 24.831,0 16,0C7.169,0 0,7.169 0,16C0,24.831 7.169,32 16,32C24.831,32 32,24.831 32,16Z" style="fill:rgb(251,237,83);fill-opacity:0.1;"/>
    <path d="M23.34,8.35L8.66,8.35C8.22,8.35 7.798,8.525 7.486,8.836C7.175,9.147 7,9.569 7,10.01L7,22.01C7.003,22.448 7.179,22.868 7.49,23.177C7.801,23.486 8.221,23.66 8.66,23.66L23.34,23.66C23.78,23.66 24.203,23.485 24.514,23.173C24.825,22.862 25,22.44 25,22L25,10C24.997,9.561 24.821,9.141 24.51,8.832C24.199,8.523 23.779,8.35 23.34,8.35ZM23.34,22.35L8.66,22.35C8.565,22.35 8.473,22.312 8.405,22.244C8.338,22.177 8.3,22.085 8.3,21.99L8.3,12.25L23.7,12.25L23.7,22C23.7,22.095 23.662,22.187 23.595,22.254C23.527,22.322 23.436,22.36 23.34,22.36L23.34,22.35Z" style="fill:rgb(251,209,83);fill-rule:nonzero;"/>
    <path d="M21.17,19.061L16.47,19.061C16.388,19.061 16.32,19.128 16.32,19.211L16.32,20.211C16.32,20.293 16.388,20.36 16.47,20.36L21.17,20.36C21.253,20.36 21.32,20.293 21.32,20.211L21.32,19.211C21.32,19.128 21.253,19.061 21.17,19.061Z" style="fill:rgb(251,209,83);fill-rule:nonzero;"/>
    <path d="M11.99,14.02C11.929,13.96 11.857,13.912 11.778,13.879C11.7,13.847 11.615,13.83 11.53,13.83C11.444,13.829 11.359,13.845 11.28,13.878C11.201,13.911 11.129,13.959 11.07,14.02C10.95,14.142 10.884,14.305 10.884,14.475C10.884,14.645 10.95,14.809 11.07,14.93L13.23,17.09L11.07,19.25C10.95,19.373 10.883,19.538 10.883,19.71C10.883,19.882 10.95,20.047 11.07,20.17C11.193,20.289 11.358,20.357 11.53,20.36C11.701,20.355 11.865,20.288 11.99,20.17L14.6,17.55C14.661,17.491 14.71,17.419 14.744,17.34C14.777,17.261 14.795,17.176 14.795,17.09C14.795,17.004 14.777,16.919 14.744,16.84C14.71,16.761 14.661,16.69 14.6,16.63L11.99,14.02Z" style="fill:rgb(251,209,83);fill-rule:nonzero;"/>
</svg>

<svg xmlns="http://www.w3.org/2000/svg" xml:space="preserve" style="fill-rule:evenodd;clip-rule:evenodd;stroke-linejoin:round;stroke-miterlimit:2" viewBox="0 0 32 32"><path d="M32 16c0-8.831-7.169-16-16-16S0 7.169 0 16s7.169 16 16 16 16-7.169 16-16" style="fill:#fbed53;fill-opacity:.1"/><path d="M23.34 8.35H8.66A1.663 1.663 0 0 0 7 10.01v12a1.66 1.66 0 0 0 1.66 1.65h14.68A1.66 1.66 0 0 0 25 22V10a1.66 1.66 0 0 0-1.66-1.65m0 14H8.66a.36.36 0 0 1-.36-.36v-9.74h15.4V22a.36.36 0 0 1-.36.36z" style="fill:#fbd153;fill-rule:nonzero"/><path d="M21.17 19.061h-4.7a.15.15 0 0 0-.15.15v1a.15.15 0 0 0 .15.149h4.7a.15.15 0 0 0 .15-.149v-1a.15.15 0 0 0-.15-.15M11.99 14.02a.657.657 0 0 0-.92 0 .647.647 0 0 0 0 .91l2.16 2.16-2.16 2.16a.66.66 0 0 0 0 .92.68.68 0 0 0 .46.19.7.7 0 0 0 .46-.19l2.61-2.62a.65.65 0 0 0 .195-.46.65.65 0 0 0-.195-.46z" style="fill:#fbd153;fill-rule:nonzero"/></svg>
